symbols/web/thumbs_up_down/materialsymbolsoutlined/thumbs_up_down_40px.svg

<svg xmlns="http://www.w3.org/2000/svg" height="40" width="40"><path d="M2.792 23.333q-1.125 0-1.959-.833Q0 21.667 0 20.542V9.708q0-.416.146-.791.146-.375.479-.75L8.792 0l1.125 1.167q.208.25.354.541.146.292.146.584v.333l-1.25 5.708h8.875q.833 0 1.396.563.562.562.562 1.396v1.75q0 .291-.042.521-.041.229-.083.354l-3.833 9.041q-.292.667-.875 1.021-.584.354-1.417.354Zm10.791-2.791 3.625-8.5v-.917h-11.5l1.125-5.208-4.041 4.041v10.584ZM31.208 40l-1.125-1.167q-.208-.25-.354-.541-.146-.292-.146-.584v-.333l1.25-5.708h-8.875q-.833 0-1.396-.563Q20 30.542 20 29.708v-1.75q0-.291.042-.52.041-.23.083-.355l3.833-9.041q.292-.667.875-1.021.584-.354 1.417-.354h10.958q1.125 0 1.959.833.833.833.833 1.958v10.834q0 .416-.146.791-.146.375-.479.75Zm-4.791-20.542-3.625 8.5v.917h11.5l-1.125 5.208 4.041-4.041V19.458Zm-23.625.75V9.958v10.25Zm34.416-.416v10.25-10.25Z"/></svg>

<svg xmlns="http://www.w3.org/2000/svg" height="40" width="40"><path d="M2.792 23.333Q1.667 23.333 0.833 22.5Q0 21.667 0 20.542V9.708Q0 9.292 0.146 8.917Q0.292 8.542 0.625 8.167L8.792 0L9.917 1.167Q10.125 1.417 10.271 1.708Q10.417 2 10.417 2.292V2.625L9.167 8.333H18.042Q18.875 8.333 19.438 8.896Q20 9.458 20 10.292V12.042Q20 12.333 19.958 12.563Q19.917 12.792 19.875 12.917L16.042 21.958Q15.75 22.625 15.167 22.979Q14.583 23.333 13.75 23.333ZM13.583 20.542 17.208 12.042V11.125Q17.208 11.125 17.208 11.125Q17.208 11.125 17.208 11.125H5.708L6.833 5.917L2.792 9.958V20.542Q2.792 20.542 2.792 20.542Q2.792 20.542 2.792 20.542ZM31.208 40 30.083 38.833Q29.875 38.583 29.729 38.292Q29.583 38 29.583 37.708V37.375L30.833 31.667H21.958Q21.125 31.667 20.562 31.104Q20 30.542 20 29.708V27.958Q20 27.667 20.042 27.438Q20.083 27.208 20.125 27.083L23.958 18.042Q24.25 17.375 24.833 17.021Q25.417 16.667 26.25 16.667H37.208Q38.333 16.667 39.167 17.5Q40 18.333 40 19.458V30.292Q40 30.708 39.854 31.083Q39.708 31.458 39.375 31.833ZM26.417 19.458 22.792 27.958V28.875Q22.792 28.875 22.792 28.875Q22.792 28.875 22.792 28.875H34.292L33.167 34.083L37.208 30.042V19.458Q37.208 19.458 37.208 19.458Q37.208 19.458 37.208 19.458ZM2.792 20.208V9.958V11.125Q2.792 11.125 2.792 11.125Q2.792 11.125 2.792 11.125V11.833V20.208Q2.792 20.208 2.792 20.208Q2.792 20.208 2.792 20.208ZM37.208 19.792V30.042V28.875Q37.208 28.875 37.208 28.875Q37.208 28.875 37.208 28.875V28.167V19.792Q37.208 19.792 37.208 19.792Q37.208 19.792 37.208 19.792Z"/></svg>
